X:48
T:Joe Yates 1st Set Tune
M:6/8
L:1/8
S:Joe Yates, collected by Mark Rummery and Chris Sullivan
A:Sofala, New South Wales, Australia
K:G
c|B2 A G2 D|F2 E c2 c|B2 A DEF|A2 G D3|!
B2 A G2 D|F2 E c2 c|B2 A DEF| G3 G2:|!
sF3A3sFAFAFA|FA z  FA F2A2e|f2 f AB^c|e2 d d^cB|!
sF3A3sFAFAFA|FA z FA F2A2e|f2 f AB^c|1 d3 d^cB:|2 d3 d2||
